school/img/country/TR.svg

<svg width="13" height="12" viewBox="0 0 13 12" fill="none" xmlns="http://www.w3.org/2000/svg">
<rect width="13" height="12" rx="2" fill="white"/>
<mask id="mask0" mask-type="alpha" maskUnits="userSpaceOnUse" x="0" y="0" width="13" height="12">
<rect width="13" height="12" rx="2" fill="white"/>
</mask>
<g mask="url(#mask0)">
<rect width="13" height="12" fill="#E92434"/>
<path fill-rule="evenodd" clip-rule="evenodd" d="M8.83108 6.46101L8.26242 7.35201L8.30115 6.19813L7.46971 5.77454L8.33086 5.46558L8.38567 4.3128L8.87915 5.27572L9.74446 4.98685L9.1883 5.89093L9.66829 6.86519L8.83108 6.46101V6.46101V6.46101V6.46101Z" fill="white"/>
<path fill-rule="evenodd" clip-rule="evenodd" d="M8.0798 8.21052C7.57006 9.05613 6.77464 9.6 5.88093 9.6C4.34242 9.6 3.09521 7.98823 3.09521 6C3.09521 4.01178 4.34242 2.4 5.88093 2.4C6.77464 2.4 7.57006 2.94388 8.0798 3.78949C7.68646 3.42005 7.19191 3.2 6.65476 3.2C5.37267 3.2 4.33333 4.4536 4.33333 6C4.33333 7.5464 5.37267 8.8 6.65476 8.8C7.19191 8.8 7.68645 8.57995 8.0798 8.21052Z" fill="white"/>
</g>
</svg>

<svg width="13" height="12" fill="none" xmlns="http://www.w3.org/2000/svg"><rect width="13" height="12" rx="2" fill="#fff"/><mask id="a" maskUnits="userSpaceOnUse" x="0" y="0" width="13" height="12"><rect width="13" height="12" rx="2" fill="#fff"/></mask><g mask="url(#a)"><path fill="#E92434" d="M0 0h13v12H0z"/><path fill-rule="evenodd" clip-rule="evenodd" d="M8.831 6.461l-.569.891.04-1.154-.832-.423.86-.31.056-1.152.493.963.865-.29-.556.905.48.974-.837-.404z" fill="#fff"/><path fill-rule="evenodd" clip-rule="evenodd" d="M8.08 8.21c-.51.846-1.305 1.39-2.2 1.39-1.538 0-2.785-1.612-2.785-3.6s1.247-3.6 2.786-3.6c.894 0 1.69.544 2.199 1.39-.394-.37-.888-.59-1.425-.59-1.282 0-2.322 1.254-2.322 2.8 0 1.546 1.04 2.8 2.322 2.8.537 0 1.031-.22 1.425-.59z" fill="#fff"/></g></svg>
